assets/icons/SVG/icon-delete.svg

<?xml version="1.0" encoding="utf-8"?>
<!-- Generator: Adobe Illustrator 27.0.0, SVG Export Plug-In . SVG Version: 6.00 Build 0)  -->
<svg version="1.1" id="Layer_1" xmlns="http://www.w3.org/2000/svg" xmlns:xlink="http://www.w3.org/1999/xlink" x="0px" y="0px"
	 viewBox="0 0 14 18" style="enable-background:new 0 0 14 18;" xml:space="preserve">
<style type="text/css">
	.st0{fill:#AFAFAF;}
</style>
<path class="st0" d="M1,16c0,1.1,0.9,2,2,2h8c1.1,0,2-0.9,2-2V4H1V16z M3,6h8v10H3V6z M10.5,1l-1-1h-5l-1,1H0v2h14V1H10.5z"/>
</svg>

<svg width="14" height="18" viewBox="0 0 14 18" fill="none" xmlns="http://www.w3.org/2000/svg">
<path d="M1 16C1 17.1 1.9 18 3 18H11C12.1 18 13 17.1 13 16V4H1V16ZM3 6H11V16H3V6ZM10.5 1L9.5 0H4.5L3.5 1H0V3H14V1H10.5Z" fill="#323232"/>
</svg>
